X:1
T:O Canada
T:O Canada
T:Calixa Lavalle
T:Adolphe-Basile Routhier, 1880
T:Public Domain Courtesy of the Cyber Hymnal™
T:Public Domain Courtesy of the Cyber Hymnal™
C:Calixa Lavalle
Z:Public Domain
Z:Courtesy of the Cyber Hymnal™
%%score ( 1 2 ) ( 3 4 )
L:1/8
Q:1/4=117
M:4/4
K:Eb
V:1 treble 
V:2 treble 
V:3 bass 
V:4 bass 
V:1
 [EG]4 [FB]3 [FB] | E6 [DF]2 | [EG]2 [EA]2 [EB]2 [Ec]2 | F8 | G4 [^F=A]3 [FA] | [GB]6 [=Ec]2 | %6
w: 1.~O Ca- na-|da! Our|home and na- tive|land!|True pa- triot|love in|
w: 2.~O Ca- na-|da! Where|pines and ma- ples|grow,|Great prair- ies|spread and|
w: 3.~O Ca- na-|da! Be-|neath thy shin- ing|skies|May stal- wart|sons and|
w: 4.~Rul- er Su-|preme, who|hear- est hum- ble|prayer,|Hold our do-|min- ion|
 [Fd]2 [Fd]2 [Ec]2 [Ec]2 | [DB]6 (F>G) | [DA]3 [DG] [DF]2 ([EG]>[FA]) | %9
w: all thy sons com-|mand. With *|glow- ing hearts we *|
w: lord- ly ri- vers|flow, How *|dear to us thy *|
w: gen- tle maid- ens|rise, To *|keep thee stead- fast *|
w: in Thy lov- ing|care; Help *|us to find, O *|
 [GB]3 [FA] [EG]2 ([DA]>[EB]) | [Ec]2 [EB]2 [FA]2 [EG]2 | [DF]6 (F>G) | %12
w: see thee rise, The *|True North strong and|free! From *|
w: broad do- main, From *|East to West- ern|Sea, Thou *|
w: through the years From *|East to West- ern|Sea, Our *|
w: God, in Thee A *|last- ing, rich re-|ward, As, *|
 [DA]3 [DG] [DF]2 ([EG]>[FA]) | [GB]3 [FA] [EG]2 [_DG]2 | [DF]2 [FB]2 (B=A) (GA) | [DB]8 || %16
w: far and wide, O *|Ca- na- da, We|stand on guard * for *|thee.|
w: land of hope for *|all who toil! Thou|True North, strong * and *|free!|
w: own be- lov- ed *|na- tive land! Our|True North, strong * and *|free!|
w: wait- ing for the *|bet- ter day, We|ev- er stand * on *|guard.|
"^Refrain" [EG]4 [FB]3 [FB] | E8 | [FA]4 [Fc]3 [Fc] | F8 x6 | [EB]4 [F=B]3 [FB] | %21
w: |||||
w: God keep our|land|glor- ious and|free!|O Ca- na-|
w: |||||
w: |||||
 [Ec]2 [EA]2 [EG]2 [CF]2 | [B,E]4 [DF]4 | z2 x12 | [EB]4 [Fe]3 [Fe] | [Ec]2 [EA]2 [EG]2 [CF]2 | %26
w: |||||
w: da, we stand on|guard for||thee. O Ca-|na- da, we stand|
w: |||||
w: |||||
 [EB]4 [B,D]4 | [B,E]8 |] %28
w: ||
w: on guard|for|
w: ||
w: ||
V:2
 x8 | E6 x2 | x8 | (E4 D4) | (E2 G2) x4 | x8 | x8 | x6 D2 | x8 | x8 | x8 | x6 D2 | x8 | x8 | %14
 x4 E2 E2 | x8 || x8 | E8 | x8 | (F4 D4) x6 | x8 | x8 | x8 | [EG]8 B,2 E2 G2 | x8 | x8 | x8 | x8 |] %28
V:3
 [E,B,]4 [D,B,]3 [D,B,] | [C,G,]6 [B,,B,]2 | [E,B,]2 [C,C]2 [G,,B,]2 [A,,F,]2 | [B,,B,]8 | %4
 [E,B,]4 [D,D]3 [D,D] | [G,D]6 [_G,B,]2 | [F,B,]2 F,2 [F,G,]2 [F,=A,]2 | [B,,B,]6 B,2 | %8
 [F,B,]3 [G,B,] [A,B,]2 B,2 | [E,B,]3 [D,B,] [E,B,]2 B,2 | A,2 [G,B,]2 [_A,C]2 [=A,C]2 | %11
 [B,D]6 B,2 | [F,B,]3 [G,B,] [A,B,]2 B,2 | [E,B,]3 [D,B,] [E,B,]2 [=E,B,]2 | %14
 [F,B,]2 [F,D]2 [F,C]2 [F,C]2 | B,8 || [E,B,]4 [D,B,]3 [D,B,] | G,4 C4 | [F,,F,C]4 [E,A,]3 [E,A,] | %19
 B,8 ([C,D,]2 A,4) | [G,,G,B,]4 [G,,G,D]3 [G,,G,D] | [A,,A,C]2 [A,,C]2 [A,,B,]2 [A,,A,]2 | %22
 [B,,G,]4 [B,,B,]4 | [E,B,]8 x6 | [G,B,]4 [G,=B,]3 [G,B,] | [A,C]2 [F,,C]2 [G,,B,]2 [A,,A,]2 | %26
 [B,,G,]4 [B,,A,]4 | [E,G,]8 |] %28
V:4
 x8 | x8 | x8 | x8 | x8 | x8 | x2 F,2 x4 | x6 (A,>G,) | x6 (G,>F,) | x6 (F,>G,) | =A,2 x6 | %11
 x6 (A,>G,) | x6 (G,>F,) | x8 | x8 | (B,,2 A,2 G,2 F,2) || x8 | (C,2 B,,2 A,,2 G,,2) | x8 | %19
 (D,2- B,,2 A,,2) x8 | x8 | x8 | x8 | x14 | x8 | x8 | x8 | x8 |] %28

